X:1
T: Behind the Bush in the Garden
C:
R:Jig
Q:180
K:Am
M:6/8
L:1/16
AB|c4A2 A2G2E2|c4A2 A2G2E2|G4G2 G2A2E2|G6 E4B2|c4d2 e4a2|g4e2 d4e2|c4A2 B2A2G2|A6 A4AB|
c4A2 A2G2E2|c4A2 A2G2E2|G4G2 G2A2E2|G6 E4B2|c4d2 e4a2|g4e2 d4e2|c4A2 B2A2G2|A6 A4AB|
c4B2 c4d2|e2f2e2 e4d2|c4B2 c4d2|e6 G4G2|c4B2 c4d2|e2f2e2 e4d2|c2B2A2 B2A2G2|A6 A4AB|
c4B2 c4d2|e2f2e2 e4d2|c4B2 c4d2|e6 G4G2|c4d2 e4a2|g4e2 d4e2|c4A2 B2A2G2|A6 A4||
